icons/svg/craft/photographer.svg

<?xml version="1.0" encoding="UTF-8" standalone="no"?>
<!-- Created with Inkscape (http://www.inkscape.org/) -->

<svg
   xmlns:dc="http://purl.org/dc/elements/1.1/"
   xmlns:cc="http://creativecommons.org/ns#"
   xmlns:rdf="http://www.w3.org/1999/02/22-rdf-syntax-ns#"
   xmlns:svg="http://www.w3.org/2000/svg"
   xmlns="http://www.w3.org/2000/svg"
   xmlns:sodipodi="http://sodipodi.sourceforge.net/DTD/sodipodi-0.dtd"
   xmlns:inkscape="http://www.inkscape.org/namespaces/inkscape"
   version="1.0"
   width="580"
   height="580"
   id="svg2"
   sodipodi:version="0.32"
   inkscape:version="0.92.3 (2405546, 2018-03-11)"
   sodipodi:docname="photographer.svg"
   inkscape:output_extension="org.inkscape.output.svg.inkscape">
  <metadata
     id="metadata2975">
    <rdf:RDF>
      <cc:Work
         rdf:about="">
        <dc:format>image/svg+xml</dc:format>
        <dc:type
           rdf:resource="http://purl.org/dc/dcmitype/StillImage" />
        <cc:license
           rdf:resource="http://web.resource.org/cc/PublicDomain" />
        <dc:language>en</dc:language>
        <dc:title />
      </cc:Work>
    </rdf:RDF>
  </metadata>
  <sodipodi:namedview
     inkscape:window-height="1006"
     inkscape:window-width="1920"
     inkscape:pageshadow="2"
     inkscape:pageopacity="0.0"
     guidetolerance="10.0"
     gridtolerance="10.0"
     objecttolerance="10.0"
     borderopacity="1.0"
     bordercolor="#666666"
     pagecolor="#ffffff"
     id="base"
     inkscape:zoom="0.46083856"
     inkscape:cx="-228.61741"
     inkscape:cy="415.58627"
     inkscape:window-x="1920"
     inkscape:window-y="0"
     inkscape:current-layer="svg2"
     showgrid="false"
     inkscape:window-maximized="1" />
  <defs
     id="defs4">
    <inkscape:perspective
       sodipodi:type="inkscape:persp3d"
       inkscape:vp_x="0 : 290 : 1"
       inkscape:vp_y="6.1230318e-14 : 1000 : 0"
       inkscape:vp_z="580 : 290 : 1"
       inkscape:persp3d-origin="290 : 193.33333 : 1"
       id="perspective2441" />
    <inkscape:perspective
       id="perspective3452"
       inkscape:persp3d-origin="30 : 20 : 1"
       inkscape:vp_z="60 : 30 : 1"
       inkscape:vp_y="0 : 1000 : 0"
       inkscape:vp_x="0 : 30 : 1"
       sodipodi:type="inkscape:persp3d" />
    <symbol
       viewBox="244.5 110 489 219.9"
       id="symbol-university">
      <path
         id="path4460"
         d="M79,43l57,119c0,0,21-96,104-96s124,106,124,106l43-133l82-17L0,17L79,43z" />
      <path
         id="path4462"
         d="M94,176l-21,39"
         stroke-width="20"
         stroke="#000000"
         fill="none" />
      <path
         id="path4464"
         d="M300,19c0,10.5-22.6,19-50.5,19S199,29.5,199,19s22.6-19,50.5-19S300,8.5,300,19z" />
      <path
         id="path4466"
         d="M112,216l-16-38L64,88c0,0-9-8-4-35s16-24,16-24"
         stroke-width="20"
         stroke="#000000"
         ill="none" />
    </symbol>
    <inkscape:perspective
       id="perspective4471"
       inkscape:persp3d-origin="372.04724 : 350.78739 : 1"
       inkscape:vp_z="744.09448 : 526.18109 : 1"
       inkscape:vp_y="0 : 1000 : 0"
       inkscape:vp_x="0 : 526.18109 : 1"
       sodipodi:type="inkscape:persp3d" />
    <inkscape:perspective
       id="perspective4668"
       inkscape:persp3d-origin="6 : 4 : 1"
       inkscape:vp_z="12 : 6 : 1"
       inkscape:vp_y="0 : 1000 : 0"
       inkscape:vp_x="0 : 6 : 1"
       sodipodi:type="inkscape:persp3d" />
    <inkscape:perspective
       id="perspective3826"
       inkscape:persp3d-origin="0.5 : 0.33333333 : 1"
       inkscape:vp_z="1 : 0.5 : 1"
       inkscape:vp_y="0 : 1000 : 0"
       inkscape:vp_x="0 : 0.5 : 1"
       sodipodi:type="inkscape:persp3d" />
    <inkscape:perspective
       id="perspective3855"
       inkscape:persp3d-origin="0.5 : 0.33333333 : 1"
       inkscape:vp_z="1 : 0.5 : 1"
       inkscape:vp_y="0 : 1000 : 0"
       inkscape:vp_x="0 : 0.5 : 1"
       sodipodi:type="inkscape:persp3d" />
    <inkscape:perspective
       id="perspective3909"
       inkscape:persp3d-origin="0.5 : 0.33333333 : 1"
       inkscape:vp_z="1 : 0.5 : 1"
       inkscape:vp_y="0 : 1000 : 0"
       inkscape:vp_x="0 : 0.5 : 1"
       sodipodi:type="inkscape:persp3d" />
    <inkscape:perspective
       id="perspective11014"
       inkscape:persp3d-origin="0.5 : 0.33333333 : 1"
       inkscape:vp_z="1 : 0.5 : 1"
       inkscape:vp_y="0 : 1000 : 0"
       inkscape:vp_x="0 : 0.5 : 1"
       sodipodi:type="inkscape:persp3d" />
    <inkscape:perspective
       id="perspective11066"
       inkscape:persp3d-origin="0.5 : 0.33333333 : 1"
       inkscape:vp_z="1 : 0.5 : 1"
       inkscape:vp_y="0 : 1000 : 0"
       inkscape:vp_x="0 : 0.5 : 1"
       sodipodi:type="inkscape:persp3d" />
    <inkscape:perspective
       id="perspective15015"
       inkscape:persp3d-origin="0.5 : 0.33333333 : 1"
       inkscape:vp_z="1 : 0.5 : 1"
       inkscape:vp_y="0 : 1000 : 0"
       inkscape:vp_x="0 : 0.5 : 1"
       sodipodi:type="inkscape:persp3d" />
    <inkscape:perspective
       id="perspective15058"
       inkscape:persp3d-origin="0.5 : 0.33333333 : 1"
       inkscape:vp_z="1 : 0.5 : 1"
       inkscape:vp_y="0 : 1000 : 0"
       inkscape:vp_x="0 : 0.5 : 1"
       sodipodi:type="inkscape:persp3d" />
  </defs>
  <g
     id="g1327">
    <path
       d="M 66.275,1.768 C 24.94,1.768 1.704,23.139 1.704,66.804 L 1.704,516.927 C 1.704,557.771 22.599,579.156 63.896,579.156 L 515.92,579.156 C 557.227,579.156 578.149,558.841 578.149,516.927 L 578.149,66.804 C 578.149,24.203 557.227,1.768 514.628,1.768 C 514.624,1.768 66.133,1.625 66.275,1.768 z "
       style="fill:#111;stroke:#eee;stroke-width:3.40799999"
       id="path1329" />
  </g>
  <g
     id="g3338"
     transform="matrix(1.3973279,-0.2437849,0.2437849,1.3973279,-185.07402,-56.183307)" />
  <path
     inkscape:connector-curvature="0"
     d="m 406.89544,273.75299 c -9.95471,0 -20.37198,7.87181 -24.58211,18.69625 l -3.46226,9.00189 h -29.4293 v -5.53962 c 0,-3.06341 -2.4762,-5.53964 -5.53963,-5.53964 h -38.77742 c -3.06341,0 -5.53964,2.47623 -5.53964,5.53964 v 7.09765 c -16.29758,4.81394 -27.69814,19.83603 -27.69814,37.21939 v 155.10967 c 0,21.37742 17.39999,38.77741 38.77741,38.77741 h 199.42671 c 21.37745,0 38.77742,-17.39999 38.77742,-38.77741 V 340.22855 c 0,-21.37743 -17.39997,-38.77742 -38.77742,-38.77742 h -12.81038 l -3.46228,-9.00189 c -4.21011,-10.82999 -14.62739,-18.69625 -24.58211,-18.69625 z m 31.16044,49.85667 c 39.70805,0 72.01518,32.30711 72.01518,72.0152 0,39.70807 -32.30713,72.01521 -72.01518,72.01521 -39.70809,0 -72.0152,-32.30714 -72.0152,-72.01521 0,-39.70809 32.30711,-72.0152 72.0152,-72.0152 z m -127.41153,-4.55149 c 11.68604,0 21.17039,9.48435 21.17039,21.1704 0,11.68603 -9.48435,21.17034 -21.17039,21.17034 -11.69663,0 -21.17037,-9.48431 -21.17037,-21.17034 0,-11.68605 9.47374,-21.1704 21.17037,-21.1704 z m 127.41153,26.44265 c -27.63658,0 -50.12404,22.48747 -50.12404,50.12404 0,27.63657 22.48746,50.12402 50.12404,50.12402 27.63656,0 50.12402,-22.48745 50.12402,-50.12402 0,-27.63657 -22.48746,-50.12404 -50.12402,-50.12404 z"
     id="path4"
     style="fill:#ffffff;fill-opacity:1;stroke:none;stroke-width:1"
     sodipodi:nodetypes="scccsssscsssssssccsssssssssssssssss" />
  <path
     style="color:#000000;clip-rule:nonzero;display:inline;overflow:visible;visibility:visible;opacity:1;isolation:auto;mix-blend-mode:normal;color-interpolation:sRGB;color-interpolation-filters:linearRGB;solid-color:#000000;solid-opacity:1;fill:#ffffff;fill-opacity:1;fill-rule:nonzero;stroke:none;stroke-width:25;stroke-linecap:round;stroke-linejoin:round;stroke-miterlimit:4;stroke-dasharray:none;stroke-dashoffset:0;stroke-opacity:1;marker:none;color-rendering:auto;image-rendering:auto;shape-rendering:auto;text-rendering:auto;enable-background:accumulate"
     d="M 249.90625 40.726562 C 186.0037 40.726562 134.19927 92.527115 134.19922 156.42969 C 134.19922 220.33224 186.0037 272.13281 249.90625 272.13281 C 261.57437 272.13281 272.8357 270.39989 283.45508 267.1875 C 288.70446 263.15459 295.01982 260.49448 301.83398 259.8457 C 339.65586 240.81711 365.60742 201.65782 365.60742 156.42969 C 365.60742 92.527116 313.80882 40.726563 249.90625 40.726562 z M 150.375 312.3418 C 111.24182 312.3418 77.66208 336.11795 63.289062 370.01758 L 55.822266 461.15625 L 55.822266 521.69336 L 130.4707 521.69336 L 130.4707 439.25 L 152.86523 439.25 L 152.86523 521.69336 L 246.46875 521.69336 C 243.07054 513.54368 241.17969 504.64023 241.17969 495.33789 L 241.17969 340.22852 C 241.17969 330.39823 243.27927 320.94488 247.07812 312.3418 L 150.375 312.3418 z M 310.64453 330.71094 C 305.72729 330.71094 301.12695 335.31126 301.12695 340.22852 C 301.12695 345.14572 305.7273 349.74609 310.64453 349.74609 C 315.53614 349.74609 320.16211 345.12718 320.16211 340.22852 C 320.16211 335.3298 315.53615 330.71094 310.64453 330.71094 z "
     id="path4178" />
</svg>

<svg width="580" height="580" viewBox="0 0 580 580" fill="none" xmlns="http://www.w3.org/2000/svg">
<g clip-path="url(#clip0)">
<path d="M66.275 1.76802C24.94 1.76802 1.70398 23.139 1.70398 66.804V516.927C1.70398 557.771 22.599 579.156 63.896 579.156H515.92C557.227 579.156 578.149 558.841 578.149 516.927V66.804C578.149 24.203 557.227 1.76802 514.628 1.76802C514.624 1.76802 66.133 1.62502 66.275 1.76802Z" fill="#111111" stroke="#EEEEEE" stroke-width="3.408"/>
<path d="M406.895 273.753C396.941 273.753 386.523 281.625 382.313 292.449L378.851 301.451H349.422V295.911C349.422 292.848 346.946 290.372 343.882 290.372H305.105C302.041 290.372 299.565 292.848 299.565 295.911V303.009C283.268 307.823 271.867 322.845 271.867 340.228V495.338C271.867 516.716 289.267 534.116 310.644 534.116H510.071C531.448 534.116 548.848 516.716 548.848 495.338V340.228C548.848 318.851 531.448 301.451 510.071 301.451H497.261L493.798 292.449C489.588 281.619 479.171 273.753 469.216 273.753H406.895ZM438.056 323.61C477.764 323.61 510.071 355.917 510.071 395.625C510.071 435.333 477.764 467.64 438.056 467.64C398.348 467.64 366.041 435.333 366.041 395.625C366.041 355.917 398.348 323.61 438.056 323.61ZM310.644 319.058C322.33 319.058 331.815 328.542 331.815 340.229C331.815 351.915 322.33 361.399 310.644 361.399C298.948 361.399 289.474 351.915 289.474 340.229C289.474 328.542 298.948 319.058 310.644 319.058ZM438.056 345.501C410.419 345.501 387.932 367.988 387.932 395.625C387.932 423.261 410.419 445.749 438.056 445.749C465.692 445.749 488.18 423.261 488.18 395.625C488.18 367.988 465.692 345.501 438.056 345.501Z" fill="white"/>
<path d="M249.906 40.7266C186.004 40.7266 134.199 92.5271 134.199 156.43C134.199 220.332 186.004 272.133 249.906 272.133C261.574 272.133 272.836 270.4 283.455 267.188C288.704 263.155 295.02 260.494 301.834 259.846C339.656 240.817 365.607 201.658 365.607 156.43C365.607 92.5271 313.809 40.7266 249.906 40.7266ZM150.375 312.342C111.242 312.342 77.6621 336.118 63.2891 370.018L55.8223 461.156V521.693H130.471V439.25H152.865V521.693H246.469C243.071 513.544 241.18 504.64 241.18 495.338V340.229C241.18 330.398 243.279 320.945 247.078 312.342H150.375ZM310.645 330.711C305.727 330.711 301.127 335.311 301.127 340.229C301.127 345.146 305.727 349.746 310.645 349.746C315.536 349.746 320.162 345.127 320.162 340.229C320.162 335.33 315.536 330.711 310.645 330.711Z" fill="white"/>
</g>
<defs>
<clipPath id="clip0">
<path d="M0 0H580V580H0V0Z" fill="white"/>
</clipPath>
</defs>
</svg>
